arrow-up-bold-box-outline.svg

<svg fill="currentColor" viewBox="0 0 24 24"><path d="m12 7 5 5h-3v4h-4v-4H7zm7 14H5a2 2 0 0 1-2-2V5a2 2 0 0 1 2-2h14a2 2 0 0 1 2 2v14a2 2 0 0 1-2 2m0-2V5H5v14z"/></svg>

<svg  viewBox="0 0 24 24" fill="currentColor"><path  d="M12,7L17,12H14V16H10V12H7L12,7M19,21H5A2,2 0 0,1 3,19V5A2,2 0 0,1 5,3H19A2,2 0 0,1 21,5V19A2,2 0 0,1 19,21M19,19V5H5V19H19Z"/></svg>
